!!!OTL: O SCHIPMANN O SCHIPMANN
!!!ARE: Europa, Mitteleuropa, Deutschland, Westfalen
!!!SCT: E0078B
!!!YEM: Copyright 1995, estate of Helmut Schaffrath.
**kern
*ICvox
*Ivox
*M2/4
*k[b-]
*F:
{4dd
=1
8cc
8f
4dd
=2
8cc
8f
8r}
{16f
16a
=3
8.cc
16dd
8cc
8b-
=4
8.a
16g
8f}
{8f
=5
8e
8c
8e
8c
=6
8.f
16f
8f}
{8c
=7
8.f
16c
8f
8f
=8
8.f
16a
8cc}
{8b-
=9
4a
4g
=10
8f
8r}
{4dd
=11
8cc
8f
4dd
=12
8cc
8f
8r}
{16f
16a
=13
8cc
16cc
16dd
8cc
8b-
=14
8a
16g
16g
8f}
{8f
=15
8e
8c
8e
8c
=16
4f
8f}
{16f
16a
=17
8cc
16cc
16dd
8cc
16b-
16b-
=18
8.a
16g
8f}
{8f
=19
8e
8c
8e
8c
=20
8.f
16f
8f}
{16f
16a
=21
8.cc
16dd
8cc
8b-
=22
8.a
16g
8f}
{8f
=23
8e
8c
8e
8c
=24
8.f
16f
8f}
{8c
=25
8.f
16c
8f
8a
=26
8.f
16a
8cc}
{8b-
=27
4a
4g
=28
8f
8r}
{4dd
=29
8cc
8f
4dd
=30
8cc
8f}
==
!!!AGN: erzaehlendes Volks - Lied, Sage, Liebe, Ballade ?
!!!ONB: ESAC (Essen Associative Code) Database: ERK1
!!!AMT: simple duple
!!!AIN: vox
!!!EED: Helmut Schaffrath
!!!EEV: 1.0
*-
